X:1
T:A Place in the Choir
M:4/4
L:1/8
K:F
 A2 A2 AA AA| A2 GG F4| G2 G2 G3 F| A2 c2 A G2 F| F2 F2 F2 FF| DC B,2 C4|\
 C3 C A2 G2| F3 F F3 F| FF FF F4| AA AA A2 AA| A2 AA GF FF|G-G G2 G2 GG|\
 A2 c2 AG F2| F2 F2 F2 DD|D-C B,2 C2 AA| A2 A2 G2 G2| F4 z3||
